X:1
T:The Swim Swom Bonny
M:4/4
L:1/4
K:G
 D| G/2G/2 B A/2A/2 B| G/2G/2 E D z| d d2 B| B A z| d| d d c B/2A/2|\
 G B D E/2F/2| G2 D2| E/2 G/2- G2||
